TV/Source/Syfy Plus 1 - Dark.svg

<svg enable-background="new -200 303.248 1000 245.279" height="267" viewBox="-200 303.248 1253.1006 250.31248" width="1336.6406" xmlns="http://www.w3.org/2000/svg"><g fill="#00d7e0" fill-rule="evenodd" transform="matrix(1.1908301 0 0 1.1908301 -200 302.17627)"><path d="m184.2.9h-142.2l-42 42v57.8c1.9 1.9 2.9 2.9 4.8 4.8h89.7v-20.6h89.7l4.8-4.8v-74.4c-1.8-1.9-2.9-2.9-4.8-4.8z"/><path d="m4.9 126.1c-1.9 1.9-2.9 2.9-4.8 4.8v75.3l4.8 4.8h142.2l42-42v-58.8c-1.9-1.9-2.9-2.9-4.8-4.8h-89.7v20.6h-89.7z"/><path d="m416.4 5.7c-1.9-1.9-2.9-2.9-4.8-4.8h-83c-1.9 1.9-2.9 2.9-4.8 4.8v99.8h-21.1v-99.8c-1.9-1.9-2.9-2.9-4.8-4.8h-83c-1.9 1.9-2.9 2.9-4.8 4.8v99.8l56.8 56.9v43.9c1.9 1.9 2.9 2.9 4.8 4.8h83c1.9-1.9 2.9-2.9 4.8-4.8v-43.9l56.8-56.9v-99.8z"/><path d="m853.9 5.7c-1.9-1.9-2.9-2.9-4.8-4.8h-83c-1.9 1.9-2.9 2.9-4.8 4.8v99.8h-21.1v-99.8c-1.9-1.9-2.9-2.9-4.8-4.8h-83c-1.9 1.9-2.9 2.9-4.8 4.8v99.8l56.8 56.9v43.9c1.9 1.9 2.9 2.9 4.8 4.8h83c1.9-1.9 2.9-2.9 4.8-4.8v-43.9l56.8-56.9v-99.8z"/><path d="m621.7.9h-142.2l-42 42v163.4c1.9 1.9 2.9 2.9 4.8 4.8h83c1.9-1.9 2.9-2.9 4.8-4.8v-26.1h91.6c1.9-1.9 2.9-2.9 4.8-4.8v-65c-1.9-1.9-2.9-2.9-4.8-4.8h-91.6v-20.7h91.6l4.8-4.8v-74.4c-1.8-1.9-2.9-2.9-4.8-4.8z"/></g><g fill="#00d7e0" transform="matrix(1.0008772 0 0 1.0008772 1.16835 314.6209)"><path d="m995.10543-11.362935h34.98167v218.038125h20.9232v32.055h-73.61153v-32.055h20.5575v-185.9925h-20.5575v-14.6300878z" fill="#00d7e0" stroke-width=".937838"/><path d="m891.87715 63.654877h31.43717v37.953753h38.41318v31.87781h-38.41318v38.33812h-31.43717v-38.33812h-38.50686v-31.87781h38.50686z" fill="#00d7e0" stroke-width=".937838"/></g></svg>

<?xml version="1.0" encoding="UTF-8" standalone="no"?>
<!-- Generator: Adobe Illustrator 16.0.0, SVG Export Plug-In . SVG Version: 6.00 Build 0)  -->

<svg
   xmlns:dc="http://purl.org/dc/elements/1.1/"
   xmlns:cc="http://creativecommons.org/ns#"
   xmlns:rdf="http://www.w3.org/1999/02/22-rdf-syntax-ns#"
   xmlns:svg="http://www.w3.org/2000/svg"
   xmlns="http://www.w3.org/2000/svg"
   xmlns:sodipodi="http://sodipodi.sourceforge.net/DTD/sodipodi-0.dtd"
   xmlns:inkscape="http://www.inkscape.org/namespaces/inkscape"
   version="1.1"
   id="svg2"
   sodipodi:docname="Syfy Plus 1 - Dark.svg"
   inkscape:version="0.92.1 r15371"
   x="0px"
   y="0px"
   width="1336.6406"
   height="267"
   viewBox="-200 303.248 1253.1006 250.31248"
   enable-background="new -200 303.248 1000 245.279"
   xml:space="preserve"><metadata
     id="metadata18"><rdf:RDF><cc:Work
         rdf:about=""><dc:format>image/svg+xml</dc:format><dc:type
           rdf:resource="http://purl.org/dc/dcmitype/StillImage" /><dc:title></dc:title></cc:Work></rdf:RDF></metadata><defs
     id="defs16"><pattern
       y="0"
       x="0"
       height="6"
       width="6"
       patternUnits="userSpaceOnUse"
       id="EMFhbasepattern" /></defs><sodipodi:namedview
     showgrid="false"
     inkscape:cy="299.45204"
     inkscape:cx="473.36022"
     inkscape:zoom="0.64"
     borderopacity="1.0"
     bordercolor="#666666"
     pagecolor="#ffffff"
     id="base"
     inkscape:window-maximized="1"
     inkscape:current-layer="svg2"
     inkscape:pageshadow="2"
     inkscape:pageopacity="0.0"
     inkscape:document-units="px"
     inkscape:window-x="-8"
     inkscape:window-height="1017"
     inkscape:window-y="-8"
     inkscape:window-width="1920"
     fit-margin-top="0"
     fit-margin-left="0"
     fit-margin-right="0"
     fit-margin-bottom="0" /><g
     style="fill:#00d7e0;fill-rule:evenodd;stroke:none;stroke-width:1"
     id="g22"
     transform="matrix(1.1908301,0,0,1.1908301,-200,302.17627)"><g
       id="Page-1"><g
         id="logo"><g
           id="Group"><g
             id="Shape"><path
               inkscape:connector-curvature="0"
               id="path8"
               d="M 184.2,0.9 H 42 l -42,42 v 57.8 c 1.9,1.9 2.9,2.9 4.8,4.8 H 94.5 V 84.9 h 89.7 L 189,80.1 V 5.7 c -1.8,-1.9 -2.9,-2.9 -4.8,-4.8 z" /><path
               inkscape:connector-curvature="0"
               id="path10-2"
               d="M 4.9,126.1 C 3,128 2,129 0.1,130.9 v 75.3 c 1.9,1.9 2.9,2.9 4.8,4.8 h 142.2 l 42,-42 v -58.8 c -1.9,-1.9 -2.9,-2.9 -4.8,-4.8 H 94.6 V 126 H 4.9 Z" /><path
               inkscape:connector-curvature="0"
               id="path12-7"
               d="m 416.4,5.7 c -1.9,-1.9 -2.9,-2.9 -4.8,-4.8 h -83 v 0 c -1.9,1.9 -2.9,2.9 -4.8,4.8 v 99.8 H 302.7 V 5.7 c -1.9,-1.9 -2.9,-2.9 -4.8,-4.8 h -83 C 213,2.8 212,3.8 210.1,5.7 v 99.8 l 56.8,56.9 v 43.9 c 1.9,1.9 2.9,2.9 4.8,4.8 h 83 c 1.9,-1.9 2.9,-2.9 4.8,-4.8 v -43.9 l 56.8,-56.9 V 5.7 Z" /><path
               inkscape:connector-curvature="0"
               id="path14"
               d="M 853.9,5.7 C 852,3.8 851,2.8 849.1,0.9 h -83 v 0 c -1.9,1.9 -2.9,2.9 -4.8,4.8 v 99.8 H 740.2 V 5.7 c -1.9,-1.9 -2.9,-2.9 -4.8,-4.8 h -83 c -1.9,1.9 -2.9,2.9 -4.8,4.8 v 99.8 l 56.8,56.9 v 43.9 c 1.9,1.9 2.9,2.9 4.8,4.8 h 83 c 1.9,-1.9 2.9,-2.9 4.8,-4.8 v -43.9 l 56.8,-56.9 V 5.7 Z" /></g><path
             inkscape:connector-curvature="0"
             id="path17"
             d="M 621.7,0.9 H 479.5 l -42,42 v 163.4 c 1.9,1.9 2.9,2.9 4.8,4.8 h 83 c 1.9,-1.9 2.9,-2.9 4.8,-4.8 v -26.1 h 91.6 c 1.9,-1.9 2.9,-2.9 4.8,-4.8 v -65 c -1.9,-1.9 -2.9,-2.9 -4.8,-4.8 H 530.1 V 84.9 h 91.6 c 1.9,-1.9 2.9,-2.9 4.8,-4.8 V 5.7 c -1.8,-1.9 -2.9,-2.9 -4.8,-4.8 z" /></g></g></g></g><g
     id="g4523"
     transform="matrix(1.0008772,0,0,1.0008772,1.1683503,314.6209)"
     style="fill:#00d7e0;fill-opacity:1"><path
       d="m 995.10543,-11.362935 h 34.98167 V 206.67519 h 20.9232 v 32.055 h -73.61153 v -32.055 h 20.5575 V 20.68269 h -20.5575 V 6.0526022 Z"
       id="path10"
       style="opacity:1;fill:#00d7e0;fill-opacity:1;stroke-width:0.93783778"
       inkscape:connector-curvature="0"
       sodipodi:nodetypes="cccccccccccc" /><path
       d="m 891.87715,63.654877 h 31.43717 v 37.953753 h 38.41318 v 31.87781 h -38.41318 v 38.33812 h -31.43717 v -38.33812 h -38.50686 v -31.87781 h 38.50686 z"
       id="path12"
       style="opacity:1;fill:#00d7e0;fill-opacity:1;stroke-width:0.93783778"
       inkscape:connector-curvature="0"
       sodipodi:nodetypes="ccccccccccccc" /></g></svg>
